X:1
T:Title
%%score { ( 1 4 ) | ( 2 3 5 ) }
L:1/8
M:4/4
K:Eb
V:1 treble nm="Grand Piano"
V:4 treble 
V:2 bass 
V:3 bass 
V:5 bass 
V:1
 z/[Q:1/4=100] .[G,B,E]3/2 z/ .[G,B,E]3/2 z/ .[G,B,E]3/2 z/ .[G,E]3/2 |[M:1/16] B/ | %2
[M:4/4] [EGB]2 (3[EG=A]Bc [EGB]2 [EGe]>B | [B,EG]2 (3[B,E_G]=GA [B,EG]2 [EGB]>G | %4
 [G,B,E]2 [G,B,E]>F [B,EG]2 [B,EG]>A | [EGB]2 (3[=A,EG]FE [B,DF]2 z z/ B/ | %6
 [EGB]2 (3[EG=A]Bc [EGB]2 [EGe]>B | [B,EG]2 (3[B,E_G]=GA [B,EG]2 [EGB]>G | %8
 [B,DF]2 [=A,CF]>F [B,FB]2 F>B | c2 F>c d2 z z/ d/ | [FBf]2 d>B [B,EG]2 [EGe]>c | %11
 [DFB]2 (3[EF=A]Bc [FB]4 | B>B B>B B>[B,B] [B,B]>[B,B] | [EGe]2 [DGd]>G [CGc]2 [B,GB]2 | %14
 [CGc]2 [B,GB]>E [CEA]2 [B,EG]>G | [DG]2 [B,DF]>B [EGc]2 [EB]>c | %16
[M:17/16] [FBd]-<[FBd][F=Ac]>c[cf]-<[cf][D_AB]3/2 z/ B/ |[M:4/4] =B2 B>B _B2 B,>B | %18
 =B2 B>B _B2 z z/ B/ | [B,EB]2 [DAB]>B [EGe]2 [EAc]>[Acf] | [GBe]2 (3[FAd]cd [EGe]4 |] %21
V:2
 z/ .[E,,E,]3/2 z/ .[B,,,B,,]3/2 z/ .[E,,E,]3/2 z/ .[B,,,B,,]3/2 |[M:1/16] z/ | %2
[M:4/4] .[E,,E,]2 .[B,,,B,,]2 .[E,,E,]2 .[B,,,B,,]>[EG] | %3
 .[E,,E,]2 .[B,,,B,,]2 .[E,,E,]2 .[B,,,B,,]>[B,E] | %4
 .[E,,E,]2 .[B,,,B,,]>[B,D] .[E,,E,]2 .[B,,,B,,]>[B,F] | .[E,,E,]2 (3:2:2F,,2 =A, B,,2 z z/ B,/ | %6
 .[E,,E,]2 .[B,,,B,,]2 .[E,,E,]2 .[B,,,B,,]>[EG] | %7
 .[E,,E,]2 .[B,,,B,,]2 .[E,,E,]2 .[B,,,B,,]>[B,E] | [F,,F,]2 [E,,E,]2 [D,,D,]2 [D,F,B,]2 | %9
 F,,2 [F,=A,E]2 B,,2 [F,B,]2 | [D,,D,]2 [D,F,B,]2 [E,,E,]2 [C,,C,]2 | %11
 [F,,F,]2 (3:2:2z2 [EF=A] [B,,,B,,]4 | B,>B, B,>B, B,>[A,,A,] [G,,G,]>[F,,F,] | %13
 .[E,,E,]2 .[B,,,B,,]2 .[E,,E,]2 .[B,,,B,,]>[K:treble][=B,=B] | %14
 .[E,,E,]2 .[B,,,B,,]2 .[E,,E,]2 .[B,,,B,,]2 | [B,,B,]2 [A,,A,]2 [G,,G,]2 [_G,,_G,]2 | %16
[M:17/16] [F,,F,]-<[F,,F,][F,E]-<[F,E][K:treble][B,EA]-<[B,EA][K:bass][B,,B,]3/2 z/ [B,,B,]/ | %17
[M:4/4] [=B,,=B,]2 [B,,B,]>[B,,B,] [_B,,_B,]2 [B,,,B,,]>[B,,B,] | %18
 [=B,,=B,]2 [B,,B,]>[B,,B,] [_B,,_B,]2 z z/ B,/ | [G,,G,]2 [F,,F,]2 [E,,E,]2 [A,,A,]>[F,,F,] | %20
 [B,,B,]2 (3:2:2z2 [FA] [E,,E,]4 |] %21
V:3
 x8 |[M:1/16] x/ |[M:4/4] x8 | x8 | x8 | z2 .F,2 z2 B,,,2 | x8 | x8 | x8 | x8 | x8 | z2 F,2 z4 | %12
 B,,6 z2 | x15/2[K:treble] x/ | x8 | x8 |[M:17/16] x4[K:treble] x2[K:bass] x5/2 |[M:4/4] x8 | %18
 z4 z2 A,,2 | x8 | z2 B,,2 z4 |] %21
V:4
 x8 |[M:1/16] x/ |[M:4/4] x8 | x8 | x8 | x8 | x8 | x8 | x8 | z4 z2 D2 | x8 | x8 | x8 | x8 | x8 | %15
 x8 |[M:17/16] x17/2 |[M:4/4] x8 | z4 z2 A,2 | x8 | x8 |] %21
V:5
 x8 |[M:1/16] x/ |[M:4/4] x8 | x8 | x8 | x8 | x8 | x8 | x8 | x8 | x8 | z2 F,,2 z4 | x8 | %13
 x15/2[K:treble] x/ | x8 | x8 |[M:17/16] x4[K:treble] x2[K:bass] x5/2 |[M:4/4] x8 | x8 | x8 | %20
 z2 B,,,2 z4 |] %21

